X:1
T:Our Sunday School
T:Our Sunday School
T:Victor H. Benke
T:Frances Jane (Fanny) Crosby, 1901
T:Public Domain Courtesy of the Cyber Hymnal™
C:Victor H. Benke
Z:Public Domain
Z:Courtesy of the Cyber Hymnal™
%%score ( 1 2 ) 3
L:1/8
Q:1/4=105
M:6/8
K:C
V:1 treble 
V:2 treble 
V:3 bass 
V:1
 [CE] | [CE]2 [EG] [EG]2 [CE] | [CE]2 [EA] [EA]2 [CE] | [CE]2 [EG] [Gc]2 [Ed] | [Fc]3 [FB]2 [FB] | %5
w: 1.~A-|way, a- way to|Sun- day school, Our|hearts to- ge- ther|beat- ing; We|
w: 2.~A-|way, a- way to|Sun- day school, And|learn the songs of|glad- ness, That|
w: 3.~God|bless our school, our|teach- ers all, And|bind our souls to-|ge- ther In|
 [FB]2 [Fd] [FA]2 [FB] | [EA]2 [CE] [EG]2 [GA] | [GB]2 [GB] [^Fc]2 [FA] | [^FA]3 G2 || %9
w: haste to win from|those we love A|smile of hap- py|greet- ing.|
w: tell of Him Whose|ten- der love Will|ban- ish care and|sad- ness.|
w: sac- red bonds of|kin- dred love No|earth- ly power can|sev- er.|
"^Refrain" G | [FA]2 [EG] [DF]2 [B,D] | [CE]2 [EG] [Ec]2 | [Ge] [Ad]2 [Ac] [GB]2 [FA] | %13
w: ||||
w: Our|Sun- day school, dear|Sun- day school,|With pur- est plea- sure|
w: ||||
 [FA]3 [EG]2 [Ec] | [Fc]2 [FA] [FA]2 [Fc] | [Ec]2 [EG] !fermata![EG]2 G | [FA]2 [Af] [Fd]2 [FB] | %17
w: ||||
w: glow- ing, Where|tran- quil peace and|ho- ly joy Are|like a riv- er|
w: ||||
 [FB]3 !fermata![Ec]2 |] %18
w: |
w: flow- ing.|
w: |
V:2
 x | x6 | x6 | x6 | x6 | x6 | x6 | x6 | x3 G2 || G | x6 | x5 | x7 | x6 | x6 | x5 G | x6 | x5 |] %18
V:3
 [C,G,] | [C,G,]2 [C,C] [C,C]2 [C,G,] | [C,G,]2 [C,C] [C,C]2 [C,G,] | [C,G,]2 [C,C] [E,C]2 [C,C] | %4
 [G,D]3 [G,D]2 [G,D] | [G,D]2 [G,B,] [G,C]2 [G,D] | [C,C]2 [C,G,] [C,C]2 [E,C] | %7
 [D,D]2 [D,D] [D,A,]2 [D,C] | [D,C]3 [G,B,]2 || [G,B,] | [G,B,]2 [G,B,] [G,,G,]2 [G,,G,] | %11
 [C,G,]2 [C,C] [C,G,]2 | [C,C] [F,C]2 [F,C] [F,C]2 [F,C] | [C,C]3 [C,C]2 [C,G,] | %14
 [F,A,]2 [F,C] [F,C]2 [F,A,] | [C,G,]2 [C,C] [C,C]2 [E,C] | [F,C]2 [D,C] [G,B,]2 [G,D] | %17
 [G,D]3 [C,C]2 |] %18

